X: 198
Q: "Andante."
U: p=!crescendo(!
U: P=!crescendo)!
U: Q=!diminuendo(!
U: q=!diminuendo)!
M: C
L: 1/8
K: F
|:\
!p!A3 G F2 F2 | pc3 B PB2 A2 | f3 c Q(ed) (cqB) | (AG) (FE) F4 :|
"^a tempo."A3 G F2 F2 | pc3 B PB2 A2 | f3 Qc (ed) q(cB) | (AG) (FE) F4 |]


